X:1
T:Title
%%score ( 1 2 3 ) { ( 4 6 ) | ( 5 7 ) }
L:1/8
Q:1/4=83
M:4/4
K:Ab
V:1 treble nm="Grand Piano, Soprano"
V:2 treble 
V:3 treble 
V:4 treble nm="Choir Pad, All Aboard for Glory"
V:6 treble 
V:5 bass 
V:7 bass 
V:1
 [CE][DF] (3[EA][EA][EA] [EA][EA][EA][DF] | [CE][DF] (3[EA][EA][EA] [FA][DF] [CE]2 | %2
w: By~J.~D.~Eller * * * * * * * *||
 [EA][EB] (3[Ac][Ac][Ac] [Ac][Ac][Ac][GB] | [FA][EA] (3[=DB][DB][DB] [Dc][Dc] [EB]2 | %4
w: ||
 [Ec][DB] (3[CA][CA][CA] [Ec][EA][DF][CE] | [CE][DF] (3[EA][EA][EA] [FA][DF] [CE]2 | %6
w: ||
 [Ec][Ed] (3[Ae][Ae][Ae] [Ae][Ac][EB][EA] | [EA][FB] (3[Ec][Ec][Ec] [EB][DB] [CA]2 | %8
w: ||
 AB c2- [Ec-]2 [Ec][DB] | z4 E4 | AB c2- [Ac-]2 [Ac][Ae] | [Ac]AB-[GB-] [GB-][GB-] [GB]2 | z2 A6 | %13
w: |||||
 z2 z A- A3- A/ z/ | Ac e2- [Ae-]2 [Ge][Gc] | [GB][GB]AF EF E2- | E4 z4 |] %17
w: ||||
V:2
 x8 | x8 | x8 | x8 | x8 | x8 | x8 | x8 | z2 E2 z4 | (3[CA][CA][CA] [DF][CE] (7:8:5C3/4C3/4C/C z/ | %10
 z2 A2 z4 | z2 .G2 z4 | cB E2 E2 E[DF] | z2 z F z4 | z2 A2 z4 | x8 | x8 |] %17
V:3
 x8 | x8 | x8 | x8 | x8 | x8 | x8 | x8 | x8 | z4 z2 z C | x8 | x8 | x8 | %13
 (3[CE][CE][CE] .[DF]2 (3FFF EE | x8 | x8 | x8 |] %17
V:4
 A,A, (3CCC CCC[K:bass]A, | A,A, (3CC[K:treble]C DA, A,2 | CD (3EEE EEED | %3
 CC[K:bass] (3B,A,F, A,A, G,2 | A,A, (3E,E,E, A,CA,A, | A,A,[K:treble] (3CCC DA,[K:bass] A,2 | %6
 A,B, (3CC[K:treble]C CEDC | A,A, (3A,A,A, G,G, A,2 | z2 A,2 A,2 A,A, | z4 z2 z A, | %10
 z2[K:treble] E2 E2 EC | E=DEE EE E2 | z2 C2 C2 C[K:bass]A, | (3A,A,A, A,[K:treble]D (3DDD CC | %14
 z2 C2 C2 B,E | EDCD C_C =C2- | C4 z4 |] %17
V:5
 A,,A,, (3A,,A,,A,, A,,A,,A,,A,, | A,,A,, (3A,,A,,A,, D,D, A,,2 | A,A, (3A,A,A, A,A,A,E, | %3
 F,F, (3B,,B,,B,, B,,B,, E,2 | A,,A,, (3A,,A,,A,, A,,A,,A,,A,, | A,,A,, (3A,,A,,A,, D,D, A,,2 | %6
 z A, (3A,A,A, A,A,A,A, | C,C, (3E,E,E, E,E, A,,2 | z2 A,,2 A,,2 A,,A,, | %9
 (3A,,A,,A,, A,,A,, (7:8:5A,,3/4A,,3/4A,,/A,, z/ | z2 A,2 A,2 A,A, | A,F,E,E, E,E, E,2 | %12
 z2 A,,2 A,,2 A,,A,, | (3A,,A,,A,, D,D, (3D,D,D, A,,A,, | z2 A,2 A,2 E,E, | E,E, A,,6 | z8 |] %17
V:6
 x7[K:bass] x | x10/3[K:treble] x14/3 | x8 | x2[K:bass] x6 | x8 | x2[K:treble] x4[K:bass] x2 | %6
 x10/3[K:treble] x14/3 | x8 | x8 | (3E,E,E, A,A, (7:8:5A,3/4A,3/4A,/A, z/ | x2[K:treble] x6 | x8 | %12
 x7[K:bass] x | x3[K:treble] x5 | x8 | x8 | x8 |] %17
V:7
 x8 | x8 | x8 | x8 | x8 | x8 | x8 | x8 | x8 | z4 z2 z A,, | x8 | x8 | x8 | x8 | x8 | x8 | x8 |] %17

